X:146
T: WOHER DIE FLOCKEN UEBERALL
N: B0636
O: Europa, Mitteleuropa, Deutschland
R: Kinder -, Jahreszeiten - Lied, Winter
M: 4/4
L: 1/4
K: Bb
F | BBcc | dcB
c | dded | c2z
f | fddB | BGG
B | ABcd | B2z

@@@ Tune index: 2364
